X:001
T:Ardara Circus* (m)
B:NFID.110c ("untitled march")
001ard_c
S:SD
N:Source version second ending of part 2 is |A2[A2E2] A/A/A d4|.
L:1/8
M:C
R:march % A-B-A
Q:300
K:A=G
ABcd|:e2dB gedB|e2dB GABc|e2BG dGBc|d2[B2E2] ABcd|
e2dB gedB|e2dB GABd|e2ed B2A2|1 A2[A2E2] ABcd:|2 A2aa a2a2||
e2ef gedB|e2ef g2g2|d2BG dGBd|g2fg a2a2|
e2ef gedB|e2dB GABd|e2ed B2A2|1 A2fg a2a2:|2 A4 A4|]

%%%

